X: 1
T: Beans
M: 4/4
L: 1/8
R: reel
K: Dmaj
|:B=c^cd gBfB|ed (3Bcd cB c2|DFAd fede|fedf edc=c|
B=c^cd gBfB|ed (3Bcd c3 z|fedf edce|d=cAF G3z:|
FAdf bfaf|bfab afdB|Adfa ba (3fab|afd=c d4|
Acef gece|aAAgAAec|Acef gfga|ba^ga fdBA|
Adfa bfaf|bfab afdB|Adfa ba (3fab|afd=c ^c3z|
Acef g2 Ac|efgf edcd|aAAgAAe2|cABc d4:|
